X:77
T:HEXMLSS-  The Hexamshire Lass
S:from Northumbrian Minstrelsy
Q:1/4=120
L:1/4
M:3/2
K:D
Dc/ d/ B A/ F/ (EC)|dc/ d/ B A/ d/ eE|\
dc/ d/ BA/ F/ E (F/A/)|B(A/c/)d(A/F/) (ED)||\
GB/ G/F(A/F/) (ED/) D/|GB/ G/FA/ B/(=cE)|\
FB/ G/F(A/F/)E(F/A/)|B(A/c/)d(A/F/) (ED)|]

